X: 116
T:Sheehan's
R:Reel
S:Trad, arr. Paddy O'Brien
M:C|
L:1/8
Q:1/2=112
K:G
F|:~G2BG DGBG|ABcA BG~G2|AGAB cBcA|EAAG FDEF|
~G2BG DGBd|~c2AB cdef|gedB ~c2Bc|dBcA BG~G:|
f|~g2bg dgbg|gbag fdde|~f2af dfaf|gbag fdef|
~g2bg dgbg|gbag fdef|gedB ~c2Bc|dBcA BGG:|
